assets/footer/brands/lineicons.svg

<svg width="185" height="30" viewBox="0 0 185 30" fill="none" xmlns="http://www.w3.org/2000/svg">
<g clip-path="url(#clip0_707_226)">
<mask id="mask0_707_226" style="mask-type:luminance" maskUnits="userSpaceOnUse" x="0" y="0" width="185" height="30">
<path d="M184.45 0H0V30H184.45V0Z" fill="white"/>
</mask>
<g mask="url(#mask0_707_226)">
<path d="M44.0152 2.30566H39.6641V27.1453H54.4198V23.1377H44.0152V2.30566Z" fill="white"/>
<path d="M59.4123 6.99237C60.771 6.99237 61.8932 5.87023 61.8932 4.47328C61.8932 3.07634 60.771 2 59.4123 2C57.9848 2 56.8625 3.0916 56.8625 4.48092C56.8625 5.87023 57.9924 6.99237 59.4123 6.99237ZM57.3512 27.145H61.4962V10.3511H57.3512V27.145Z" fill="white"/>
<path d="M69.9236 27.1449V18.1068C69.9236 15.3892 71.4809 13.6182 74.0381 13.6182C76.1831 13.6182 77.5725 14.977 77.5725 17.8014V27.1526H81.7175V16.809C81.7175 12.4579 79.5419 9.84717 75.3282 9.84717C73.0534 9.84717 71.0152 10.8319 69.9618 12.5342L69.6183 10.3587H65.7786V27.1526H69.9236V27.1449Z" fill="white"/>
<path d="M93.3053 27.5879C97.687 27.5879 100.748 25.3818 101.458 21.7024H97.6183C97.1374 23.2978 95.6488 24.1833 93.3664 24.1833C90.6107 24.1833 89.0534 22.6871 88.7481 19.7329L101.389 19.6948V18.4429C101.389 13.2062 98.1908 9.83984 93.1603 9.83984C88.2366 9.83984 84.8015 13.4734 84.8015 18.7482C84.8015 23.9467 88.3053 27.5879 93.3053 27.5879ZM93.1985 13.2444C95.6794 13.2444 97.2748 14.7711 97.2748 17.0841H88.8473C89.2519 14.5726 90.7481 13.2444 93.1985 13.2444Z" fill="white"/>
<path d="M106.779 6.99237C108.137 6.99237 109.259 5.87023 109.259 4.47328C109.259 3.07634 108.137 2 106.779 2C105.351 2 104.237 3.0916 104.237 4.48092C104.237 5.87023 105.343 6.99237 106.779 6.99237ZM104.702 27.145H108.847V10.3511H104.702V27.145Z" fill="white"/>
<path d="M112.153 18.7174C112.153 24.0533 115.481 27.5877 120.58 27.5877C124.962 27.5877 128.229 24.9006 128.733 20.9923H124.55C124.107 22.8319 122.649 23.8472 120.572 23.8472C117.924 23.8472 116.29 21.8777 116.29 18.7174C116.29 15.5571 118.061 13.5495 120.71 13.5495C122.679 13.5495 124.076 14.5342 124.55 16.4426H128.695C128.252 12.3968 125.122 9.84717 120.542 9.84717C115.588 9.84717 112.153 13.519 112.153 18.7174Z" fill="white"/>
<path d="M130.832 18.7176C130.832 23.9543 134.603 27.5573 139.809 27.5573C145.008 27.5573 148.786 23.9619 148.786 18.7176C148.786 13.481 145.015 9.87793 139.809 9.87793C134.611 9.88556 130.832 13.481 130.832 18.7176ZM134.985 18.7176C134.985 15.6566 136.954 13.5879 139.809 13.5879C142.664 13.5879 144.634 15.6642 144.634 18.7176C144.634 21.7711 142.664 23.8474 139.809 23.8474C136.954 23.855 134.985 21.7787 134.985 18.7176Z" fill="white"/>
<path d="M156.206 27.1449V18.1068C156.206 15.3892 157.763 13.6182 160.321 13.6182C162.466 13.6182 163.855 14.977 163.855 17.8014V27.1526H168V16.809C168 12.4579 165.824 9.84717 161.611 9.84717C159.336 9.84717 157.298 10.8319 156.244 12.5342L155.901 10.3587H152.061V27.1526H156.206V27.1449Z" fill="white"/>
<path d="M184.45 22.0839C184.45 25.4808 181.565 27.5953 177.42 27.5953C173.237 27.5953 170.595 25.3434 170.588 22.061H174.519C174.55 23.519 175.641 24.4426 177.542 24.4426C179.473 24.4426 180.534 23.6564 180.534 22.435C180.534 21.58 180.099 20.977 178.603 20.6335L175.572 19.9159C172.55 19.2365 171.092 17.809 171.092 15.122C171.092 11.8243 173.87 9.84717 177.748 9.84717C181.519 9.84717 184.061 12.0304 184.099 15.29H180.16C180.137 13.8625 179.176 12.9464 177.58 12.9464C175.954 12.9464 175 13.6945 175 14.9464C175 15.9006 175.756 16.5037 177.176 16.8472L180.206 17.5648C182.809 18.1526 184.237 19.3129 184.427 21.519L184.45 22.0839Z" fill="white"/>
<path d="M23.7173 26.4524C24.8089 25.3608 24.8089 23.5974 23.7173 22.5058L4.76314 3.55161C3.67153 2.46001 1.90817 2.46001 0.816567 3.55161C-0.275037 4.64322 -0.275037 6.40657 0.816567 7.49818L19.7707 26.4524C20.8623 27.544 22.6257 27.544 23.7173 26.4524Z" fill="#6566FF"/>
<path d="M23.2135 12.4599C24.3051 11.3683 24.3051 9.60496 23.2135 8.51336L15.5189 0.818702C14.4273 -0.272901 12.6639 -0.272901 11.5723 0.818702C10.4807 1.91031 10.4807 3.67366 11.5723 4.76527L19.267 12.4599C20.3586 13.5439 22.1219 13.5439 23.2135 12.4599Z" fill="#6566FF"/>
<path d="M12.9616 29.1851C14.0532 28.0935 14.0532 26.3301 12.9616 25.2385L5.26691 17.5438C4.17531 16.4522 2.41195 16.4522 1.32035 17.5438C0.228747 18.6354 0.228747 20.3988 1.32035 21.4904L9.01501 29.1851C10.1066 30.2767 11.87 30.2767 12.9616 29.1851Z" fill="#6566FF"/>
</g>
</g>
<defs>
<clipPath id="clip0_707_226">
<rect width="185" height="30" fill="white"/>
</clipPath>
</defs>
</svg>

<svg xmlns="http://www.w3.org/2000/svg" width="185" height="30" fill="none"><g clip-path="url(#a)"><mask id="b" width="185" height="30" x="0" y="0" maskUnits="userSpaceOnUse" style="mask-type:luminance"><path fill="#fff" d="M184.45 0H0v30h184.45V0Z"/></mask><g mask="url(#b)"><path fill="#fff" d="M44.015 2.306h-4.35v24.84H54.42v-4.008H44.015V2.306Zm15.397 4.686c1.359 0 2.481-1.122 2.481-2.519A2.465 2.465 0 0 0 59.413 2c-1.428 0-2.55 1.092-2.55 2.48 0 1.39 1.13 2.512 2.55 2.512Zm-2.06 20.153h4.144V10.351h-4.145v16.794Zm12.572 0v-9.038c0-2.718 1.557-4.489 4.114-4.489 2.145 0 3.535 1.359 3.535 4.183v9.352h4.145V16.809c0-4.351-2.176-6.962-6.39-6.962-2.275 0-4.313.985-5.366 2.687l-.344-2.175h-3.84v16.794h4.146v-.008Zm23.381.443c4.382 0 7.443-2.206 8.153-5.886h-3.84c-.48 1.596-1.97 2.481-4.252 2.481-2.755 0-4.313-1.496-4.618-4.45l12.641-.038v-1.252c0-5.237-3.198-8.603-8.229-8.603-4.923 0-8.358 3.633-8.358 8.908 0 5.199 3.503 8.84 8.503 8.84Zm-.107-14.344c2.481 0 4.077 1.527 4.077 3.84h-8.428c.405-2.511 1.901-3.84 4.352-3.84Zm13.581-6.252c1.358 0 2.48-1.122 2.48-2.519A2.464 2.464 0 0 0 106.779 2c-1.428 0-2.542 1.092-2.542 2.48 0 1.39 1.106 2.512 2.542 2.512Zm-2.077 20.153h4.145V10.351h-4.145v16.794Zm7.451-8.428c0 5.336 3.328 8.87 8.427 8.87 4.382 0 7.649-2.686 8.153-6.595h-4.183c-.443 1.84-1.901 2.855-3.978 2.855-2.648 0-4.282-1.97-4.282-5.13s1.771-5.167 4.42-5.167c1.969 0 3.366.984 3.84 2.893h4.145c-.443-4.046-3.573-6.596-8.153-6.596-4.954 0-8.389 3.672-8.389 8.87Zm18.679.001c0 5.236 3.771 8.84 8.977 8.84 5.199 0 8.977-3.596 8.977-8.84 0-5.237-3.771-8.84-8.977-8.84-5.198.008-8.977 3.603-8.977 8.84Zm4.153 0c0-3.061 1.969-5.13 4.824-5.13 2.855 0 4.825 2.076 4.825 5.13 0 3.053-1.97 5.13-4.825 5.13-2.855.007-4.824-2.07-4.824-5.13Zm21.221 8.427v-9.038c0-2.718 1.557-4.489 4.115-4.489 2.145 0 3.534 1.359 3.534 4.183v9.352H168V16.809c0-4.351-2.176-6.962-6.389-6.962-2.275 0-4.313.985-5.367 2.687l-.343-2.175h-3.84v16.794h4.145v-.008Zm28.244-5.061c0 3.397-2.885 5.511-7.03 5.511-4.183 0-6.825-2.252-6.832-5.534h3.931c.031 1.458 1.122 2.382 3.023 2.382 1.931 0 2.992-.787 2.992-2.008 0-.855-.435-1.458-1.931-1.801l-3.031-.718c-3.022-.68-4.48-2.107-4.48-4.794 0-3.298 2.778-5.275 6.656-5.275 3.771 0 6.313 2.183 6.351 5.443h-3.939c-.023-1.427-.984-2.344-2.58-2.344-1.626 0-2.58.748-2.58 2 0 .955.756 1.558 2.176 1.901l3.03.718c2.603.588 4.031 1.748 4.221 3.954l.023.565Z"/><path fill="#6566FF" d="M23.717 26.452a2.787 2.787 0 0 0 0-3.946L4.763 3.552a2.787 2.787 0 0 0-3.946 0 2.787 2.787 0 0 0 0 3.946L19.77 26.452a2.787 2.787 0 0 0 3.946 0Zm-.504-13.992a2.787 2.787 0 0 0 0-3.947L15.52.82a2.787 2.787 0 0 0-3.947 0 2.787 2.787 0 0 0 0 3.946l7.695 7.695a2.801 2.801 0 0 0 3.947 0ZM12.962 29.185a2.787 2.787 0 0 0 0-3.947l-7.695-7.694a2.787 2.787 0 0 0-3.947 0 2.787 2.787 0 0 0 0 3.946l7.695 7.695a2.787 2.787 0 0 0 3.947 0Z"/></g></g><defs><clipPath id="a"><path fill="#fff" d="M0 0h185v30H0z"/></clipPath></defs></svg>
